X: 1769
T: Sevgi Çiçeğimsin
C: Ömer Sami Güpgüp
O: Turkey
F: http://compmusic.upf.edu/node/140
N: suzidil--sarki--duyek--sevgi_cicegimsin--omer_sami_gupgup
N: makam= suzidil
N: form= sarki
N: usul= duyek = 8/4
M: 8/4
L: 1/16
K: C ^1/4f ^g ^d 
Q: 1/4=150
%%MIDI tuningsystem comma53
z2 d4 e2 f2 e2 d2 e2  | c8 cB AB c4  | \
w:  Sev gi  çi çe ğim  |  sin  SAZ  | 
z2 B2 c2 d2 e2 f4 e2  | e8 ed cd e4  | 
w:  be ni  bı rak  |  ma   SAZ  | 
a2 a2 a4 a2 g2 f2 g2  | f8 gf eg f4  | \
w:  Sa na  bağ lan *  *  mı  |  şım  SAZ  | 
e4 e2 e2 d6 f2  | e8 BA GF E4  | 
w:  kal bi mi  yak  |  ma   SAZ  | 
z2 d4 e2 f2 e2 d2 e2  | c8 cB AB c4  | \
w:  Sev gi  çi çe ğim  |  sin  SAZ  | 
z2 B2 c2 d2 e2 f4 e2  | e8 ed cd e4  | 
w:  be ni  bı rak  |  ma   SAZ  | 
a2 a2 a4 a2 g2 f2 g2  | f8 gf eg f4  | \
w:  Sa na  bağ lan *  *  mı  |  şım  SAZ  | 
e4 e2 e2 d6 f2  | e8 =dc Bc d4  | 
w:  kal bi mi  yak  |  ma   SAZ  | 
=d4 d2 d2 d2 d6  | (3f2e2=d2 (3e2d2c2 (3d2c2B2 (3c2B2A2  | \
w:  Ben  se ni  se ver  |  ken   | 
A4 A2 A2 A2 B4 A2  | 
w:  el le re  bak  | 
G8 GF EF G4  | F2 F4 F2 z4 F2 E2  | A8 G2 F2 E2 D2  | \
w:  ma   SAZ  |  Gü lüm se  ne  o  |  lur   | 
G2 F4 G2 z4 F2 E2  | 
w:  gü lüm se  ba  | 
E8 =dc Bc d4  | =d4 d2 d2 d2 d6  | (3f2e2=d2 (3e2d2c2 (3d2c2B2 (3c2B2A2  | 
w:  na   SAZ  |  Ben  se ni  se ver  |  ken   | 
A4 A2 A2 A2 B4 A2  | G8 GF EF G4  | F2 F4 F2 z4 F2 E2  | \
w:  el le re  bak  |  ma   SAZ  |  Gü lüm se  ne  o  | 
A8 G2 F2 E2 D2  | 
w:  lur   | 
G2 F4 G2 z4 F2 E2  | E8 c=d e^f =g4  | \
w:  gü lüm se  ba  |  na   SAZ  | 
z2 =g2 g2 g2 g2 b2 (3a2g2^f2  | 
w:   | 
=g16  | z2 f2 f2 f2 f2 =g2 (3f2e2d2  | e16  | \
w:   |   |   | 
z2 c2 c2 c2 c2 =d2 (3c2B2A2  | B16  | 
w:   |   | 
G2 F4 E2 E8  | F2 G2 A4 B8  | A2 B6 B4 B2 B2  | \
w:   |   |  Ba har  müj de si   | 
(3=d2^c2B2 c2 d2 ed cB B4  | 
w:  var   | 
z2 f2 f2 f2 f2 e2 =d2 e2  | f8 fe =de f4  | \
w:  o  ba kı şın   |  da   SAZ  | 
a4 a2 a2 a2 g2 f2 g2  | 
w:  Göğ sü ne  me nek  | 
f8 gf eg f4  | e4 e2 e2 e2 d2 c2 e2  | \
w:  şe  SAZ  |  gül  ta kı şın  | 
e8 BA GA B4  | A2 B6 B4 B2 B2  | 
w:  da   SAZ  |  Ba har  müj de si   | 
(3=d2^c2B2 c2 d2 ed cB B4  | z2 f2 f2 f2 f2 e2 =d2 e2  | \
w:  var   |  o  ba kı şın   | 
f8 fe =de f4  | 
w:  da   SAZ  | 
a4 a2 a2 a2 g2 f2 g2  | f8 gf eg f4  | \
w:  Göğ sü ne  me nek  |  şe  SAZ  | 
e4 e2 e2 e2 d2 c2 e2  | e8 =dc Bc d4  | 
w:  gül  ta kı şın  |  da   SAZ  | 
=d4 d2 d2 d6 d2  | (3f2e2=d2 (3e2d2c2 (3d2c2B2 (3c2B2A2  | \
w:  Kar şı ma  an sı  |  zın   | 
A4 A2 A2 A2 B4 A2  | 
w:  her  çı kı şın  | 
G8 GF EF G4  | F2 F4 F2 z4 F2 E2  | A8 G2 F2 E2 D2  | \
w:  da   SAZ  |  Gü lüm se  ne  o  |  lur   | 
G2 F4 G2 z4 F2 E2  | 
w:  gü lüm se  ba  | 
E8 z8  | |


